X: 10
T:Morning Star, Bledington 2
M:4/4
L:1/8
A:Bledington
P:A(AB)4
K:F
P:A
|:ABA2 D2EF|GAGE C2FG|ABAF E2GE|C2F2 F4:|
P:B
|:A2A2 c2c2|dfed cBAG|FGAB c2c2|defd c4 |
  A2A2 c2c2|dfed cAF2|GABG E2GE|C2F2 F4:|

